svgs/fl_studio_mobile.svg

<svg width="24" height="24" viewBox="0 0 24 24" fill="none" xmlns="http://www.w3.org/2000/svg">
<path d="M15.687 10.5629C15.687 10.5629 16.4027 11.372 16.657 11.95C16.3273 13.1186 15.5351 15.2659 13.738 17.7139C10.9941 21.4516 9.23016 20.984 9.1767 20.9787C8.97006 20.9582 7.17182 20.8551 6.81849 15.5731C6.58932 12.1473 7.36564 9.84924 7.93958 8.6571C8.64358 8.29223 9.63165 8.14207 9.98021 8.09789C9.94682 8.29591 9.92939 8.49978 9.92939 8.70794C9.92939 10.6165 11.1967 12.3168 13.0031 12.3168C14.1183 12.3168 15.0957 11.4646 15.6861 10.5642C15.6864 10.5638 15.6867 10.5633 15.6869 10.5629H15.687Z" fill="black"/>
<path d="M17.7433 11.7294C18.0283 12.0356 18.4132 11.4121 18.4132 11.4121C18.4132 11.4121 19.4325 9.99887 18.0643 7.66484C17.1141 6.43924 16.0746 6.10257 14.5041 6.44372C14.3805 6.37208 14.2964 6.3556 14.2683 6.34764C14.3012 5.728 15.4517 3.34988 16.7769 2.55119C17.0459 2.25414 16.8333 2.23639 16.7638 2.21893C14.7434 3.30921 13.729 6.1478 13.729 6.1478C13.729 6.1478 13.6098 6.07451 13.6018 6.07354C13.1085 5.07403 11.5988 3.98271 10.0078 4.33923C9.09863 4.54296 8.20176 5.25341 7.72454 5.82872C7.29298 6.34899 7.11091 7.00168 7.09496 7.36779C7.07929 7.72502 7.3929 7.71804 7.51744 7.68744C8.99073 7.32545 9.45609 7.15928 10.8565 7.09449C10.8647 7.49054 10.3419 10.5588 12.2867 11.2237C13.8461 11.7569 15.1581 10.0547 15.5715 9.26996C16.8392 10.4374 17.4572 11.4221 17.7433 11.7294H17.7433Z" fill="black"/>
</svg>

<svg xmlns="http://www.w3.org/2000/svg" width="24" height="24" fill="none" viewBox="0 0 24 24"><path fill="#000" d="M15.687 10.563s.716.809.97 1.387c-.33 1.169-1.122 3.316-2.919 5.764-2.744 3.738-4.508 3.27-4.561 3.265-.207-.02-2.005-.124-2.359-5.406-.229-3.426.548-5.724 1.122-6.916.704-.365 1.692-.515 2.04-.56-.033.199-.05.403-.05.61 0 1.91 1.267 3.61 3.073 3.61 1.115 0 2.093-.852 2.683-1.753v-.001h.001"/><path fill="#000" d="M17.743 11.73c.285.306.67-.318.67-.318s1.02-1.413-.349-3.747c-.95-1.226-1.99-1.562-3.56-1.221-.123-.072-.208-.088-.236-.096.033-.62 1.184-2.998 2.509-3.797.269-.297.056-.315-.013-.332-2.02 1.09-3.035 3.929-3.035 3.929s-.12-.073-.127-.074c-.494-1-2.003-2.091-3.594-1.735-.91.204-1.806.914-2.283 1.49-.432.52-.614 1.173-.63 1.539-.016.357.298.35.422.32 1.474-.363 1.94-.529 3.34-.594.008.397-.515 3.465 1.43 4.13 1.56.533 2.871-1.17 3.284-1.954 1.268 1.167 1.886 2.152 2.172 2.46"/></svg>
